dist/images/svg/sprite/mail-icon.svg

<svg width="20" height="15" viewBox="0 0 20 15" fill="none" xmlns="http://www.w3.org/2000/svg">
<path d="M18.7495 14.1465H1.24951C0.559512 14.1465 -0.000488281 13.5714 -0.000488281 12.8627V1.30835C-0.000488281 0.599687 0.559512 0.0245361 1.24951 0.0245361H18.7495C19.4395 0.0245361 19.9995 0.599687 19.9995 1.30835V12.8627C19.9995 13.5714 19.4395 14.1465 18.7495 14.1465Z" fill="#E79922"/>
<path d="M18.7495 14.1465H1.24951C0.548262 14.1465 -0.000488281 13.5829 -0.000488281 12.8627C-0.000488281 12.6586 0.0945117 12.466 0.254512 12.3453L9.62951 5.92626C9.73951 5.84281 9.86951 5.80173 9.99951 5.80173C10.1295 5.80173 10.2595 5.84281 10.3695 5.92626L19.7445 12.3453C19.9045 12.466 19.9995 12.6586 19.9995 12.8627C19.9995 13.5829 19.4508 14.1465 18.7495 14.1465Z" fill="#F6A21E"/>
<path d="M18.7495 0.0245361H1.24951C0.548262 0.0245361 -0.000488281 0.588133 -0.000488281 1.30835C-0.000488281 1.51248 0.0945117 1.70505 0.254512 1.82573L9.63451 8.74166C9.85201 8.90214 10.1458 8.90214 10.3633 8.74166L19.7433 1.82573C19.9045 1.70505 19.9995 1.51248 19.9995 1.30835C19.9995 0.588133 19.4508 0.0245361 18.7495 0.0245361Z" fill="#F1CA2D"/>
</svg>

<svg width="20" height="15" fill="none" xmlns="http://www.w3.org/2000/svg"><path d="M18.75 14.146H1.25c-.69 0-1.25-.575-1.25-1.283V1.308C0 .6.56.025 1.25.025h17.5C19.44.025 20 .6 20 1.308v11.555c0 .708-.56 1.284-1.25 1.284Z" fill="#E79922"/><path d="M18.75 14.146H1.25c-.702 0-1.25-.563-1.25-1.283 0-.204.095-.397.255-.518L9.63 5.926a.61.61 0 0 1 .74 0l9.374 6.42c.16.12.256.313.256.517 0 .72-.55 1.284-1.25 1.284Z" fill="#F6A21E"/><path d="M18.75.025H1.25C.548.025 0 .588 0 1.308c0 .204.095.397.255.518l9.38 6.916c.217.16.51.16.728 0l9.38-6.916A.646.646 0 0 0 20 1.308c0-.72-.55-1.283-1.25-1.283Z" fill="#F1CA2D"/></svg>
